X: 40441
T: Tom Moylan's Frolic
R: reel
M: 4/4
K: Dmajor
Ad d2 ed d2|Addf a2 ag|ed d2 edce|Ad=cA GE E2:|
ADFA deed|=c3 G EG G2|ADFA d2 ed|cAGE ED D2:|

